dist/img/svg/print.svg

<svg width="16" height="16" viewBox="0 0 16 16" fill="none" xmlns="http://www.w3.org/2000/svg">
<path d="M4.07744 11.9223H1.89844V4.94952H14.1008V11.9223H11.9218M11.9218 4.94952V1.89893H4.07744V4.94952M10.6144 7.12852H11.9218M4.07744 9.30752V14.1013H11.9218V9.30752H4.07744Z" stroke="currentColor" stroke-linecap="round"/>
</svg>

<svg width="16" height="16" viewBox="0 0 16 16" fill="none" xmlns="http://www.w3.org/2000/svg"><path d="M4.077 11.922H1.898V4.95h12.203v6.972h-2.18m0-6.972V1.899H4.078v3.05m6.537 2.18h1.308M4.077 9.308V14.1h7.845V9.308H4.077z" stroke="currentColor" stroke-linecap="round"/></svg>
